packages/tokens/icons/implementation/size24Px.svg

<svg viewBox="0 0 24 24" fill="none" xmlns="http://www.w3.org/2000/svg" width="1em" height="1em"><path d="M6.72388 5.5H5.5C4.39543 5.5 3.5 6.39543 3.5 7.5L3.5 16.5C3.5 17.6046 4.39543 18.5 5.5 18.5H19.5C20.6046 18.5 21.5 17.6046 21.5 16.5V16.5" stroke="currentColor" stroke-linecap="round"/><path d="M13 18.5L13 21.5" stroke="currentColor"/><path d="M7.52238 21.5H18.5" stroke="currentColor" stroke-linecap="round"/><path d="M21.2058 8.26607H20.6043C20.4809 7.72622 20.265 7.23265 19.9874 6.76992L20.4038 6.35347C20.5272 6.23008 20.5272 6.04499 20.4038 5.92159L19.0929 4.61054C18.9695 4.48715 18.7844 4.48715 18.6611 4.61054L18.2446 5.02699C17.782 4.74936 17.2884 4.53342 16.7486 4.41003V3.80848C16.7486 3.63882 16.6098 3.5 16.4402 3.5H14.5895C14.4198 3.5 14.281 3.63882 14.281 3.80848V4.41003C13.7412 4.53342 13.2477 4.74936 12.785 5.02699L12.3532 4.61054C12.2298 4.48715 12.0447 4.48715 11.9214 4.61054L10.6104 5.92159C10.487 6.04499 10.487 6.23008 10.6104 6.35347L11.0268 6.76992C10.7492 7.23265 10.5333 7.72622 10.4099 8.26607H9.80845C9.6388 8.26607 9.5 8.40488 9.5 8.57455V10.4254C9.5 10.5951 9.6388 10.7339 9.80845 10.7339H10.4099C10.5333 11.2738 10.7492 11.7674 11.0268 12.2301L10.6104 12.6465C10.487 12.7699 10.487 12.955 10.6104 13.0784L11.9214 14.3895C12.0447 14.5129 12.2298 14.5129 12.3532 14.3895L12.7696 13.973C13.2323 14.2506 13.7258 14.4666 14.2656 14.59V15.1915C14.2656 15.3612 14.4044 15.5 14.5741 15.5H16.4248C16.5944 15.5 16.7332 15.3612 16.7332 15.1915V14.59C17.273 14.4666 17.7665 14.2506 18.2292 13.973L18.6456 14.3895C18.769 14.5129 18.9541 14.5129 19.0775 14.3895L20.3884 13.0784C20.5118 12.955 20.5118 12.7699 20.3884 12.6465L19.972 12.2301C20.2496 11.7674 20.4655 11.2738 20.5889 10.7339H21.1904C21.36 10.7339 21.4988 10.5951 21.4988 10.4254V8.57455C21.5142 8.40488 21.3754 8.26607 21.2058 8.26607Z" stroke="currentColor" stroke-miterlimit="10"/><circle cx="15.5" cy="9.5" r="2" stroke="currentColor"/></svg>

<svg xmlns="http://www.w3.org/2000/svg" fill="none" viewBox="0 0 24 24" width="1em" height="1em"><path stroke="currentColor" stroke-linecap="round" d="M6.724 5.5H5.5a2 2 0 0 0-2 2v9a2 2 0 0 0 2 2h14a2 2 0 0 0 2-2v0"/><path stroke="currentColor" d="M13 18.5v3"/><path stroke="currentColor" stroke-linecap="round" d="M7.522 21.5H18.5"/><path stroke="currentColor" stroke-miterlimit="10" d="M21.206 8.266h-.602a5.109 5.109 0 0 0-.617-1.496l.417-.417a.298.298 0 0 0 0-.431L19.093 4.61a.298.298 0 0 0-.432 0l-.416.416a5.106 5.106 0 0 0-1.496-.617v-.602a.31.31 0 0 0-.309-.308h-1.85a.31.31 0 0 0-.309.308v.602c-.54.123-1.033.34-1.496.617l-.432-.416a.298.298 0 0 0-.432 0l-1.31 1.31a.298.298 0 0 0 0 .432l.416.417a5.109 5.109 0 0 0-.617 1.496h-.602a.31.31 0 0 0-.308.309v1.85c0 .17.139.309.308.309h.602c.123.54.34 1.033.617 1.496l-.417.416a.298.298 0 0 0 0 .432l1.311 1.312a.298.298 0 0 0 .432 0l.417-.417c.462.278.956.494 1.496.617v.601c0 .17.138.309.308.309h1.85a.31.31 0 0 0 .31-.309v-.601a5.109 5.109 0 0 0 1.495-.617l.417.416a.298.298 0 0 0 .431 0l1.311-1.31a.298.298 0 0 0 0-.433l-.416-.416c.278-.463.493-.956.617-1.496h.601a.31.31 0 0 0 .309-.309v-1.85a.287.287 0 0 0-.293-.309Z"/><circle cx="15.5" cy="9.5" r="2" stroke="currentColor"/></svg>
